fs/comment_add_48_filled.svg

<svg viewBox="0 0 48 48" fill="none" xmlns="http://www.w3.org/2000/svg" height="1em" width="1em">
  <path d="M46 13C46 19.0751 41.0751 24 35 24C28.9249 24 24 19.0751 24 13C24 6.92487 28.9249 2 35 2C41.0751 2 46 6.92487 46 13ZM36 6C36 5.44772 35.5523 5 35 5C34.4477 5 34 5.44772 34 6V12H28C27.4477 12 27 12.4477 27 13C27 13.5523 27.4477 14 28 14H34V20C34 20.5523 34.4477 21 35 21C35.5523 21 36 20.5523 36 20V14H42C42.5523 14 43 13.5523 43 13C43 12.4477 42.5523 12 42 12H36V6ZM35 26C38.493 26 41.6642 24.6224 44 22.3809V28.75C44 32.7541 40.7541 36 36.75 36H26.3967L15.5475 43.6583C14.0571 44.7103 12 43.6444 12 41.8201V36H11.25C7.24594 36 4 32.7541 4 28.75V13.25C4 9.24594 7.24594 6 11.25 6H24.0436C22.75 8.0206 22 10.4227 22 13C22 20.1797 27.8203 26 35 26Z" fill="#212121"/>
</svg>

<svg viewBox="0 0 48 48" fill="none" xmlns="http://www.w3.org/2000/svg" height="1em" width="1em">
  <path d="M46 13c0 6.075-4.925 11-11 11s-11-4.925-11-11S28.925 2 35 2s11 4.925 11 11ZM36 6a1 1 0 1 0-2 0v6h-6a1 1 0 1 0 0 2h6v6a1 1 0 1 0 2 0v-6h6a1 1 0 1 0 0-2h-6V6Zm-1 20c3.493 0 6.664-1.378 9-3.62v6.37A7.25 7.25 0 0 1 36.75 36H26.397l-10.85 7.658C14.057 44.71 12 43.644 12 41.82V36h-.75A7.25 7.25 0 0 1 4 28.75v-15.5A7.25 7.25 0 0 1 11.25 6h12.794A12.94 12.94 0 0 0 22 13c0 7.18 5.82 13 13 13Z" fill="#212121"/>
</svg>
